X:11469
T:Music in the Glen
R:Reel
M:4/4
L:1/8
Q:1/4=200
K:G
|:DE|G2BG  (3EFG DC|B,DGB A2AB|c2AB cBAG|
AcBA GEDE|G2BG  (3EFG DC|B,DGB AGAB|cdef gage|
dcBA G2::A|BGdG eGdG|(3BAG dB cAFA|(3BAG dG edef|
gedB AGEA|(3BAG dG edef|~g3b agef|
(3gag  (3fgf efdB|1 cABG AGEA:|2 cABG AGEF|]
